X: 1823
T: Sözbirliği Edelim
C: Muallim İsmail Hakkı Bey
O: Turkey
F: http://compmusic.upf.edu/node/140
N: nihavent--sarki--aydin--sozbirligi--muallim_ismail_hakki_bey
N: makam= nihavent
N: form= sarki
N: usul= aydin = 9/8
M: 9/8
L: 1/16
K: C _B _e  
Q: 1/4=156
%%MIDI tuningsystem comma53
G4 G4 G4 d6 | d4d4g8z2  | g4 d4 e4 ^f2e2 d2 | \
w:  Söz bir li ği   |  i de lim   |  ti yat ro ya   | 
d4c2 e2d2 c2B2 A2G2  | 
w:  gi de *  lim    | 
G4 G4 G4 d6 | d4d4g8z2  | g4 g4 g2a2 ^f4 e2 | \
w:  Söz bir li ği   |  i de lim   |  ti yat ro *  ya   | 
^f2 e2e2 d2d8z2  | d4 d4 d4 e2d2 c2 | 
w:  gi *  de *  lim    |  Gö nül  ar zu   | 
c4c2 e2d2 c2B2 A2G2  | A2B2 A2B2 d2c2 B2A2 G2 | \
w:  i di *  yor   |  in *  ce  *  saz  *  din  | 
B3AG2 ^F2G2 A2B2 c2d2  | 
w:  le *  ye *  lim    | 
d4 d4 d4 e2d2 c2 | c4c2 e2d2 c2B2 A2G2  | \
w:  Gö nül  ar zu   |  i di *  yor   | 
A2B2 A2B2 d2c2 B2A2 G2 | 
w:  in *  ce  *  saz  *  din  | 
B3AG2 ^F2G8z2  | _2/4B8 A3B A4 z2 | d2 =e2c2 e2d4d2 c2_2/4B2  | \
w:  le *  ye *  lim    |  ARANAĞME  |   | 
_2/4B8 A3B A4 z2 | 
w:   | 
d2 =e2c2 e2.d4.d2 d4  | f3=e f2g2 f2e2 d3c _2/4B2 | \
w:   |   | 
d3c_2/4B2 A2B2 c2d2 =e2f2  | 
w:   | 
f3=e f2g2 f2e2 d3c _2/4B2 | d3c_2/4B2 A2B8z2  | \
w:   |   | 
c4 d4 c4 d2d2 d2 | 
w:   | 
c2 d=ed2 c2_2/4B2 A2B4z2  | A4 _2/4B4 A4 B2A2 G2 | \
w:   |   | 
c2 _2/4B2A2 G2^F2 =E2D4z2  | 
w:   | 
c4 d4 c4 d2d2 d2 | c2 d=ed2 c2_2/4B2 A2B4z2  | \
w:   |   | 
A2_2/4B2 A2B2 d2c2 B2A2 G2 | 
w:   | 
_2/4B3AG2 ^F2G8z2  | |


